src/helpers/heroicons/outline/signal-slash.svg

<svg width="24" height="24" viewBox="0 0 24 24" fill="none" xmlns="http://www.w3.org/2000/svg">
<path d="M3 3L11.7348 11.7348M11.7348 11.7348C11.8027 11.667 11.8964 11.625 12 11.625C12.2071 11.625 12.375 11.7929 12.375 12C12.375 12.1036 12.333 12.1973 12.2652 12.2652M11.7348 11.7348L12.2652 12.2652M12.2652 12.2652L21 21M14.6517 9.34835C16.1161 10.8128 16.1161 13.1872 14.6517 14.6516M16.773 7.22703C19.409 9.86307 19.409 14.1369 16.773 16.773M18.8943 5.10571C22.7019 8.91332 22.7019 15.0867 18.8943 18.8943M9.34835 14.6516C8.75129 14.0546 8.39765 13.3063 8.28743 12.5301M7.22703 16.773C5.35299 14.8989 4.81126 12.1971 5.60184 9.84448M5.10571 18.8943C2.03824 15.8268 1.44197 11.2239 3.3169 7.55955M12 12H12.0075V12.0075H12V12Z"  stroke-width="1.5" stroke-linecap="round" stroke-linejoin="round"/>
</svg>

<svg xmlns="http://www.w3.org/2000/svg" fill="none" viewBox="0 0 24 24" stroke-width="1.5" stroke="currentColor" aria-hidden="true" data-slot="icon">
  <path stroke-linecap="round" stroke-linejoin="round" d="m3 3 8.735 8.735m0 0a.374.374 0 1 1 .53.53m-.53-.53.53.53m0 0L21 21M14.652 9.348a3.75 3.75 0 0 1 0 5.304m2.121-7.425a6.75 6.75 0 0 1 0 9.546m2.121-11.667c3.808 3.807 3.808 9.98 0 13.788m-9.546-4.242a3.733 3.733 0 0 1-1.06-2.122m-1.061 4.243a6.75 6.75 0 0 1-1.625-6.929m-.496 9.05c-3.068-3.067-3.664-7.67-1.79-11.334M12 12h.008v.008H12V12Z"/>
</svg>
